X:28
T:Que Bacchus. [FJ28]
S:Festin joyeux.  Music page 14.
Z:transcribed by Eric Conrad, 2021.
N:NB The meter is given simply as "3"
N:NB In the MS, the G is the bottom line of the staff (lines: GBdfa)
N:NB MS has a four-dot repeat in the middle, with no marks at start or end.
N:NB Repeat marks were added at beginning and end.
N:NB The plus signs seem to indicate some kind of roll or trill.
M:3/4
L:1/4
% K:Ddor clef=treble1 % G is on bottom line of the staff
K:Ddor % no sharps or flats in signature, ending on D (with all sevenths raised -- sharped C)
|: f>ef | de^c | d2A | f>ef | de^c | d3 ::
a>gf | efd | ^c2d | e3/2 f/e/f/ | "^+"f2e | g>fe |
f g/f/e/d/ | ^cd>e | "^+"e>d^c | d3 :|

